static/images/mobile/copyright/wikipedia-tagline-he.svg

<?xml version="1.0" encoding="UTF-8"?>
<svg width="120px" height="12px" viewBox="0 0 120 12" version="1.1" xmlns="http://www.w3.org/2000/svg" xmlns:xlink="http://www.w3.org/1999/xlink">
    <title>wikipedia-tagline-he</title>
    <g id="Page-1" stroke="none" stroke-width="1" fill="none" fill-rule="evenodd">
        <path d="M84.2946185,4.5152692 L84.7117224,10.7784349 C84.5307571,11.2551247 84.2637223,11.6766451 83.9106184,12.0429958 L83.3743434,6.051263 C83.5685498,5.48629752 83.8753081,4.97429958 84.2946185,4.5152692 Z M31.9051059,1.97954142 C31.9359991,2.27526876 31.9668959,2.52023417 31.9977964,2.71443766 L34.3746248,2.71443766 C35.0499345,2.71443766 35.632555,2.924095 36.1224866,3.34340967 C36.6124174,3.75830585 36.9059345,4.30340624 37.0030377,4.97871084 C37.1133825,5.72464606 37.168555,6.55223281 37.168555,7.46147107 C37.168555,7.71305698 37.1597267,8.11912704 37.1420745,8.67968128 C36.9081437,9.04602479 36.6366956,9.38588632 36.3277302,9.69926589 L36.2019368,7.63360747 C36.1445544,6.53898821 36.0231749,5.72243682 35.8377982,5.1839533 C35.5464879,4.33209022 35.0455225,3.90615867 34.3349018,3.90615867 L32.0573852,3.90615867 C32.0926968,4.38726701 32.1103527,4.9389915 32.1103527,5.56133216 C32.1103527,6.04685174 32.0860764,6.71112821 32.0375237,7.55416157 C31.9933823,8.32657876 31.9580705,8.77458102 31.9315886,8.89816834 C31.6314507,9.2247889 31.3114507,9.53154436 30.9715884,9.81843474 C31.0333821,8.95774916 31.0642789,7.9999582 31.0642789,6.94506189 C31.0642789,5.51058109 30.9208305,4.385065 30.6339336,3.56851361 C31.0400029,3.10947599 31.463727,2.5798186 31.9051059,1.97954142 Z M73.4565525,2.04575356 L75.1382076,3.24409145 C75.3986217,3.42506119 75.5663458,3.67885633 75.6413797,4.00547689 C75.6855211,4.18643941 75.703177,4.48878361 75.6943473,4.91250954 L75.6413765,8.67968128 C75.3721355,9.10781844 75.0609633,9.47857682 74.7078601,9.79195639 L74.6085527,5.31636675 C74.599723,4.78230171 74.3966887,4.38506138 73.9994498,4.12464574 L72.6289668,3.2176131 L73.4565525,2.04575356 Z M27.2706245,2.04575356 L28.9522796,3.24409145 C29.2126938,3.42506119 29.3804178,3.67885633 29.4554517,4.00547689 C29.4995931,4.18643941 29.517249,4.48878361 29.5084193,4.91250954 L29.4554485,8.67968128 C29.1862075,9.10781844 28.8750353,9.47857682 28.5219321,9.79195639 L28.4226247,5.31636675 C28.413795,4.78230171 28.2107607,4.38506138 27.8135218,4.12464574 L26.4430388,3.2176131 L27.2706245,2.04575356 Z M114.809386,2.11858258 C114.840266,2.34367929 114.860116,2.467263 114.868938,2.48933372 C114.913051,2.63940302 114.9925,2.71443766 115.107287,2.71443766 L117.808523,2.71443766 C118.479424,2.71443766 118.98039,2.79830204 119.311422,2.9660308 C119.770459,3.20437573 120,3.63471852 120,4.25705918 L120,5.11112428 L119.933831,8.48768341 C119.699898,8.97761424 119.360036,9.40354578 118.914247,9.76547804 L118.973799,5.38257889 C118.982621,4.39829875 118.689103,3.90615867 118.093244,3.90615867 L113.465391,3.90615867 C113.818493,3.23967658 114.266491,2.64381789 114.809386,2.11858258 Z M49.8736484,2.11858258 C49.9045416,2.34367929 49.9244031,2.467263 49.9332328,2.48933372 C49.9773742,2.63940302 50.0568227,2.71443766 50.1715781,2.71443766 L52.8728189,2.71443766 C53.5437159,2.71443766 54.0446814,2.79830204 54.3757153,2.9660308 C54.83475,3.20437573 55.0642761,3.63471852 55.0642761,4.25705918 L55.0642761,5.11112428 L54.9980639,8.48768341 C54.7641324,8.97761424 54.4242702,9.40354578 53.9784771,9.76547804 L54.0380616,5.38257889 C54.0468913,4.39829875 53.753374,3.90615867 53.1575094,3.90615867 L48.5296481,3.90615867 C48.8827514,3.23967658 49.3307514,2.64381789 49.8736484,2.11858258 Z M39.3600046,2.11858258 C39.3908978,2.34367929 39.4107593,2.467263 39.419589,2.48933372 C39.4637304,2.63940302 39.5431789,2.71443766 39.6579343,2.71443766 L42.3591751,2.71443766 C43.030072,2.71443766 43.5310375,2.79830204 43.8620715,2.9660308 C44.3211062,3.20437573 44.5506236,3.63471852 44.5506236,4.25705918 L44.5506236,5.11112428 L44.4844201,8.48768341 C44.2504894,8.97761424 43.9106271,9.40354578 43.4648333,9.76547804 L43.5244177,5.38257889 C43.5332475,4.39829875 43.2397305,3.90615867 42.6438667,3.90615867 L38.0160043,3.90615867 C38.3691076,3.23967658 38.8171076,2.64381789 39.3600046,2.11858258 Z M1.78758694,2.01926436 C1.81848015,2.20464536 1.89130773,2.43636979 2.00606966,2.71443766 L5.11117201,2.71443766 C5.5525516,2.71443766 5.9321379,2.82478401 6.24993089,3.0454767 C6.59420658,3.27940314 6.81931015,3.61705905 6.92524163,4.05844444 C6.96496458,4.21292498 6.9848304,4.41595822 6.9848304,4.66754412 L6.95172432,8.77237177 C6.77075892,9.15195626 6.52358643,9.47416195 6.21020686,9.73898884 L6.00496548,5.80629758 C5.99613574,5.53705944 5.95199793,5.1398191 5.87255203,4.61457657 C5.74896542,4.14229797 5.50400001,3.90615867 5.13765578,3.90615867 L2.60193125,3.90615867 C2.84027618,5.06257883 2.98593133,6.26533881 3.03889671,7.51443862 C2.91089669,7.92492355 2.71006908,8.50754488 2.4364139,9.26230261 L0,9.26230261 L0.728276119,8.0705816 L2.25103508,8.0705816 L2.25103508,7.91830668 C2.25103508,7.31361102 2.16937994,6.63609357 2.00606966,5.88575433 C1.8471728,5.22368349 1.68827631,4.56381827 1.52938018,3.90615867 L0.185379908,3.90615867 C0.551724859,3.17788291 1.08579386,2.54891815 1.78758694,2.01926436 Z M115.299317,4.62782117 C115.281661,5.01623539 115.272839,5.38699376 115.272839,5.74009628 L115.239755,8.38174831 C114.99258,8.89374987 114.650509,9.3417485 114.213542,9.72574424 C114.213542,9.58892317 114.226776,8.29568193 114.253243,5.84602053 C114.54456,5.46643605 114.89325,5.06036959 115.299317,4.62782117 Z M50.3635879,4.62782117 C50.3459346,5.01623539 50.3371085,5.38699376 50.3371085,5.74009628 L50.3040024,8.38174831 C50.0568299,8.89374987 49.714761,9.3417485 49.2777955,9.72574424 L49.2780713,9.66744689 C49.2800943,9.36535226 49.2932433,8.09154347 49.3175184,5.84602053 C49.6088288,5.46643605 49.9575186,5.06036959 50.3635879,4.62782117 Z M39.8499332,4.62782117 C39.83228,5.01623539 39.8234538,5.38699376 39.8234538,5.74009628 L39.7903477,8.38174831 C39.5431752,8.89374987 39.2011063,9.3417485 38.7641408,9.72574424 L38.7647615,9.62022914 C38.767658,9.24754379 38.780692,7.98947425 38.8038638,5.84602053 C39.0951741,5.46643605 39.4438639,5.06036959 39.8499332,4.62782117 Z M106.507062,2.10533799 C107.244168,2.66147373 108.193133,3.51112758 109.353957,4.65429952 C109.671755,4.96326784 110.102101,5.40464961 110.644996,5.97844482 C110.953958,5.50175498 111.108438,5.00078878 111.108438,4.47554625 C111.108438,4.06506132 111.00913,3.71637005 110.810516,3.42947244 L111.823472,2.11858258 C112.145682,2.81154664 112.304581,3.34340605 112.30017,3.7141608 C112.295831,4.14229797 112.141346,4.62340269 111.836717,5.15747495 C111.57189,5.57678238 111.304858,5.99609344 111.03562,6.41540811 C111.66679,7.02892627 112.260443,7.69320274 112.816579,8.40823751 L112.207447,9.71251049 C111.430618,8.60465025 110.384548,7.36878781 109.069236,6.00492317 C108.786757,5.71361432 108.385102,5.31195912 107.86427,4.79995757 C107.40524,5.3605118 107.180136,6.05347585 107.188958,6.87884974 C107.193297,7.25844146 107.237435,7.65568541 107.321372,8.0705816 L108.201926,8.0705816 L107.645794,9.26230261 L105.884686,9.26230261 L106.103173,8.62671373 C106.067883,8.28244094 106.050238,8.02423454 106.050238,7.85209453 C106.050238,7.19444217 106.171616,6.5875445 106.414372,6.03140152 C106.577682,5.66505801 106.908718,5.11995401 107.407478,4.39608951 L105.765549,3.07858278 L106.507062,2.10533799 Z M77.3296528,8.8817842e-16 C77.5194457,0.264826891 77.6143422,0.58703258 77.6143422,0.966617067 L77.6143422,1.87366056 C77.6143422,2.43420756 77.6959974,2.71448105 77.8593076,2.71448105 L80.692963,2.71448105 C81.1784804,2.71448105 81.5006872,2.84248325 81.6595833,3.09848764 C81.7743424,3.28827989 81.8317229,3.62593218 81.8317229,4.11144453 C81.8317229,5.38257889 81.3086882,6.61182084 80.2626187,7.79912698 C79.6137918,8.52740275 78.479447,9.14974702 76.8595845,9.66615982 L77.5348953,8.16327209 C78.4088262,7.96465012 79.0686881,7.73071644 79.5144811,7.46147107 C79.9073088,7.22312614 80.2140675,6.867818 80.4347573,6.39554663 C80.6466188,5.94533875 80.7525496,5.46423404 80.7525496,4.95223249 C80.7525496,4.25484994 80.5340668,3.90615867 80.0971014,3.90615867 L77.601102,3.90615867 C77.2656538,3.90615867 77.0427573,3.87748555 76.9324124,3.82013929 C76.8353093,3.77602678 76.7823439,3.67892142 76.7735163,3.5288232 C76.7558641,3.14040899 76.7382082,2.754204 76.7205488,2.37020827 C76.6719961,1.91558913 76.5638582,1.52717491 76.3961353,1.20496561 L77.3296528,8.8817842e-16 Z M61.4731031,2.03250896 C61.4951739,2.27968362 61.5238651,2.4429939 61.5591767,2.5224398 C61.6121407,2.65043838 61.7092439,2.71443766 61.8504863,2.71443766 L64.0220722,2.71443766 C64.2427621,2.44961077 64.4855207,2.22671608 64.7503484,2.04575356 L64.7503484,2.71443766 L65.9751765,2.71443766 L65.4322749,3.90615867 L64.6973786,3.90615867 L64.6973786,8.66643668 C64.4502061,8.96216402 64.112551,9.29099381 63.6844131,9.65292607 L63.6844131,3.90615867 L60.0364134,3.90615867 C60.5086891,3.20437211 60.9875857,2.57982221 61.4731031,2.03250896 Z M16.3200022,2.10533799 C16.5186234,2.88216643 16.617934,3.48243999 16.617934,3.90615867 C16.617934,4.58588898 16.401658,5.20823688 15.969106,5.77320235 C15.6822099,6.14836836 15.229796,6.56547017 14.6118644,7.02450779 C14.7531061,7.5629913 14.8502097,7.89402673 14.903175,8.01761405 C15.0091058,8.26919996 15.1459333,8.39499291 15.3136578,8.39499291 C15.9757264,8.39499291 16.7591747,8.0065787 17.6640024,7.22975025 C18.1804159,6.78395362 18.4386227,6.3094694 18.4386227,5.80629758 C18.4386227,4.92795253 18.3017952,4.14009235 18.0281399,3.44271704 C18.2885541,3.15140819 18.6548991,2.71885614 19.1271748,2.14506093 C19.3787607,2.90864839 19.5001399,3.72519978 19.4913123,4.5947151 C19.486901,5.58781775 19.1757289,6.51030061 18.5577959,7.3621637 C18.1120029,7.98009311 17.5514512,8.49430028 16.8761408,8.90478522 C16.2008304,9.31527015 15.5674511,9.52051262 14.976003,9.52051262 C14.5787612,9.52051262 14.2742095,9.33071676 14.062348,8.95112504 C13.9564165,8.7613328 13.8240027,8.36409246 13.6651066,7.75940404 L12.9302093,5.01844463 C12.7051061,4.17540404 12.475589,3.60160883 12.2416583,3.29705899 C12.3078632,3.21319462 12.6013802,2.82919526 13.1222093,2.14506093 C13.2678644,2.29071898 13.4024853,2.56658122 13.526072,2.97264768 C13.6320027,3.36547315 13.7357268,3.75829862 13.8372441,4.15112409 L14.406623,6.26313319 C15.1746231,5.73347217 15.5586232,5.23250598 15.5586232,4.76023462 C15.5586232,4.39389111 15.4637267,3.8840988 15.2739338,3.23085769 L16.3200022,2.10533799 Z M84.1026184,2.07884879 L84.155586,2.48933372 C84.1820679,2.63940302 84.2593096,2.71443766 84.3873111,2.71443766 L88.7106204,2.71443766 C89.0416551,2.71443766 89.2998622,2.85568084 89.4852418,3.1381672 C89.6397245,3.37651213 89.7169659,3.65899486 89.7169659,3.98561542 C89.7169659,5.4333372 89.2645498,6.69568161 88.3597221,7.77264863 C87.706481,8.54947708 86.7001362,9.11885381 85.3406879,9.48077883 C85.4907565,9.15857676 85.6937908,8.69292226 85.9497909,8.08381535 C86.5765492,7.97347624 87.1679975,7.71526983 87.7241354,7.30919615 C88.3199977,6.87664773 88.6179288,6.135131 88.6179288,5.08464593 C88.6179288,4.29898776 88.3928252,3.90615867 87.9426181,3.90615867 L82.7188952,3.90615867 C83.0631709,3.18671264 83.524412,2.57760935 84.1026184,2.07884879 Z M22.3183475,2.11858258 C22.9671745,2.30395634 23.59614,2.58864471 24.205244,2.97264768 C24.7966921,3.34340243 25.2204162,3.70974594 25.4764163,4.07167819 C25.577933,4.65430313 25.6286912,5.25458032 25.6286912,5.87250973 C25.6286912,6.37568155 25.5867605,7.05761386 25.502899,7.91830668 C25.4278644,8.1213399 25.1851057,8.56933855 24.7746229,9.26230261 L20.0673124,9.26230261 C20.3321401,8.86505866 20.5682779,8.46781832 20.775726,8.0705816 L24.6355882,8.0705816 C24.7106228,7.65126693 24.7481402,7.23857637 24.7481402,6.83250992 C24.7481402,6.1218864 24.6488299,5.40905724 24.4502094,4.69402247 C23.9028991,4.18643941 23.088554,3.74726688 22.0071743,3.37650489 C21.6893813,3.65016152 21.5304848,3.99443792 21.5304848,4.4093341 C21.5304848,4.674161 21.6386227,4.90588543 21.8548983,5.1045074 C21.9564156,5.19719429 22.161657,5.33181697 22.4706224,5.50837546 L21.8151742,6.49485401 C21.3473126,6.2079564 21.0582094,6.01374929 20.9478646,5.91223268 C20.6521401,5.64740579 20.5042779,5.35388769 20.5042779,5.03167838 C20.5042779,4.52409532 20.7315882,3.94368322 21.1862088,3.29044212 C21.5790364,2.72988789 21.956416,2.33926805 22.3183475,2.11858258 Z M68.5042755,2.11858258 C69.1531025,2.30395634 69.782068,2.58864471 70.391172,2.97264768 C70.9826201,3.34340243 71.4063442,3.70974594 71.6623443,4.07167819 C71.763861,4.65430313 71.8146192,5.25458032 71.8146192,5.87250973 C71.8146192,6.37568155 71.7726885,7.05761386 71.688827,7.91830668 C71.6137924,8.1213399 71.3710336,8.56933855 70.9605509,9.26230261 L66.2532404,9.26230261 C66.5180681,8.86505866 66.7542059,8.46781832 66.961654,8.0705816 L70.8215162,8.0705816 C70.8965508,7.65126693 70.9340682,7.23857637 70.9340682,6.83250992 C70.9340682,6.1218864 70.8347579,5.40905724 70.6361374,4.69402247 C70.0888271,4.18643941 69.274482,3.74726688 68.1931023,3.37650489 C67.8753092,3.65016152 67.7164128,3.99443792 67.7164128,4.4093341 C67.7164128,4.674161 67.8245506,4.90588543 68.0408263,5.1045074 C68.1423436,5.19719429 68.347585,5.33181697 68.6565504,5.50837546 L68.0011022,6.49485401 C67.5332406,6.2079564 67.2441374,6.01374929 67.1337925,5.91223268 C66.8380681,5.64740579 66.6902059,5.35388769 66.6902059,5.03167838 C66.6902059,4.52409532 66.9175162,3.94368322 67.3721367,3.29044212 C67.7649644,2.72988789 68.142344,2.33926805 68.5042755,2.11858258 Z M96.0463459,2.11858258 C96.4833056,3.00575014 97.0526823,3.82671278 97.7544761,4.5814705 C98.1164083,4.9743032 98.4562735,5.30533862 98.7740716,5.57457676 C99.0433097,5.16851031 99.1779288,4.78892582 99.1779288,4.4358233 C99.1779288,4.16657793 99.0830327,3.83112764 98.8932404,3.42947244 L99.8664852,2.17153928 C100.193106,2.67912958 100.356416,3.22202796 100.356416,3.80023443 C100.356416,4.41816384 99.963587,5.14864522 99.1779288,5.99167857 C99.4251035,6.27416493 99.6722745,6.55444204 99.9194419,6.83250992 C100.162205,7.12381877 100.338757,7.4195425 100.449096,7.71968109 C100.307856,8.22285291 99.965789,8.73706008 99.4228942,9.26230261 L94.649377,9.26230261 C94.6890999,9.2093676 94.9473067,8.81212727 95.4239973,8.0705816 L99.4361388,8.0705816 C99.3566856,7.79692498 99.0742029,7.41071638 98.5886906,6.91195582 C98.4121393,6.7309933 97.9266198,6.27195931 97.1321318,5.53485381 C96.5274434,4.97429958 96.1456497,4.61016171 95.9867506,4.44244018 C95.6380644,4.07609667 95.3511697,3.69871781 95.1260665,3.31030359 C95.3908948,2.89098893 95.6976547,2.49374859 96.0463459,2.11858258 Z M102.47502,2.11858258 C103.225367,2.52023779 103.929366,3.08520326 104.587019,3.81347902 C104.657671,4.25485718 104.692997,4.80657805 104.692997,5.46864167 C104.692997,5.79526223 104.666497,6.6029875 104.613562,7.89181748 L103.838932,9.26230261 L101.184035,9.26230261 C101.329693,9.02836893 101.541556,8.6311286 101.819624,8.0705816 L103.706518,8.0705816 C103.768276,7.54975031 103.799155,7.08850708 103.799155,6.68685187 C103.799155,6.02919951 103.741776,5.38699376 103.627018,4.76023462 C103.106194,4.1423052 102.468403,3.64575388 101.713646,3.27058064 L102.47502,2.11858258 Z M8.83862406,2.03250896 L9.67945106,2.60188569 C10.729934,3.31250921 11.2551754,3.96795957 11.2551754,4.56823675 C11.2551754,4.9389915 11.0830376,5.39361064 10.7387619,5.93209415 C10.6195894,6.11305667 10.2929685,6.55443482 9.75889913,7.2562286 L8.95117603,7.50119402 C9.72800302,6.3359586 10.1164165,5.51278672 10.1164165,5.03167838 C10.1164165,4.61678219 9.67283057,4.16878355 8.78565868,3.68768245 L7.93158924,3.23085769 C7.96690094,3.18674519 8.26924588,2.78729562 8.83862406,2.03250896 Z M91.4383428,2.03250896 L92.2791698,2.60188569 C93.3296527,3.31250921 93.8548942,3.96795957 93.8548942,4.56823675 C93.8548942,4.9389915 93.6827564,5.39361064 93.3384806,5.93209415 C93.2193082,6.11305667 92.8926873,6.55443482 92.3586179,7.2562286 L91.5508937,7.50119402 C92.3277214,6.3359586 92.7161353,5.51278672 92.7161353,5.03167838 C92.7161353,4.61678219 92.2725494,4.16878355 91.3853774,3.68768245 L90.531308,3.23085769 C90.5666197,3.18674519 90.8689647,2.78729562 91.4383428,2.03250896 Z M56.9048273,2.03250896 L57.7456554,2.60188569 C58.7961376,3.31250921 59.3213787,3.96795957 59.3213787,4.56823675 C59.3213787,4.9389915 59.1492408,5.39361064 58.8049651,5.93209415 C58.6857927,6.11305667 58.3591721,6.55443482 57.8251035,7.2562286 L57.0173793,7.50119402 C57.794207,6.3359586 58.1826209,5.51278672 58.1826209,5.03167838 C58.1826209,4.61678219 57.7390345,4.16878355 56.8518619,3.68768245 L55.9977936,3.23085769 C56.0331052,3.18674519 56.3354498,2.78729562 56.9048273,2.03250896 Z" id="wikipedia-tagline-he" fill="#000000" fill-rule="nonzero"></path>
    </g>
</svg>

<svg xmlns="http://www.w3.org/2000/svg" width="120" height="12"><path fill="#000" fill-rule="nonzero" d="m84.295 4.515.417 6.263a3.692 3.692 0 0 1-.801 1.265l-.537-5.992a4.363 4.363 0 0 1 .92-1.536ZM31.905 1.98c.031.295.062.54.093.734h2.377c.675 0 1.258.21 1.747.63.49.414.784.96.881 1.635.11.746.166 1.573.166 2.482 0 .252-.01.658-.027 1.219a6.208 6.208 0 0 1-.814 1.02l-.126-2.066c-.057-1.095-.179-1.912-.364-2.45-.292-.852-.792-1.278-1.503-1.278h-2.278c.036.481.053 1.033.053 1.655 0 .486-.024 1.15-.072 1.993-.045.773-.08 1.22-.106 1.344-.3.327-.62.634-.96.92.061-.86.092-1.818.092-2.873 0-1.434-.143-2.56-.43-3.376.406-.46.83-.99 1.271-1.59Zm41.552.066 1.681 1.198c.26.181.428.435.503.761.045.181.062.484.053.908l-.053 3.767c-.269.428-.58.799-.933 1.112l-.1-4.476c-.008-.534-.211-.93-.609-1.191l-1.37-.907.828-1.172Zm-46.186 0 1.681 1.198c.26.181.428.435.503.761.045.181.062.484.053.908l-.053 3.767c-.269.428-.58.799-.933 1.112l-.1-4.476c-.008-.534-.211-.93-.608-1.191l-1.371-.907.828-1.172Zm87.538.073c.031.225.051.348.06.37.044.15.124.225.238.225h2.702c.67 0 1.171.084 1.502.252.46.238.689.669.689 1.291v.854l-.066 3.377c-.234.49-.574.916-1.02 1.277l.06-4.382c.009-.985-.285-1.477-.88-1.477h-4.629a7.092 7.092 0 0 1 1.344-1.787Zm-64.935 0c.03.225.05.348.06.37.043.15.123.225.238.225h2.7c.672 0 1.173.084 1.504.252.459.238.688.669.688 1.291v.854l-.066 3.377c-.234.49-.574.916-1.02 1.277l.06-4.382c.009-.985-.285-1.477-.88-1.477H48.53a7.092 7.092 0 0 1 1.344-1.787Zm-10.514 0c.03.225.05.348.06.37.044.15.123.225.238.225h2.701c.671 0 1.172.084 1.503.252.46.238.689.669.689 1.291v.854l-.067 3.377c-.234.49-.573.916-1.02 1.277l.06-4.382c.01-.985-.284-1.477-.88-1.477h-4.628A7.092 7.092 0 0 1 39.36 2.12Zm-37.572-.1c.03.186.103.417.218.695h3.105c.442 0 .821.11 1.139.331.344.234.57.572.675 1.013.04.155.06.358.06.61l-.033 4.104c-.181.38-.428.702-.742.967l-.205-3.933c-.009-.269-.053-.666-.132-1.191-.124-.473-.369-.709-.735-.709H2.602c.238 1.157.384 2.36.437 3.608-.128.41-.329.994-.603 1.748H0l.728-1.191h1.523v-.153c0-.604-.082-1.282-.245-2.032l-.477-1.98H.185c.367-.728.9-1.357 1.603-1.887Zm113.511 2.609c-.017.388-.026.759-.026 1.112l-.033 2.642c-.247.512-.59.96-1.026 1.344 0-.137.013-1.43.04-3.88.29-.38.64-.786 1.045-1.218Zm-64.935 0c-.018.388-.027.759-.027 1.112l-.033 2.642c-.247.512-.59.96-1.026 1.344v-.059c.002-.302.015-1.575.04-3.821.29-.38.64-.786 1.046-1.218Zm-10.514 0c-.018.388-.027.759-.027 1.112l-.033 2.642c-.247.512-.589.96-1.026 1.344V9.62l.04-3.774c.291-.38.64-.786 1.046-1.218Zm66.657-2.523c.737.556 1.686 1.406 2.847 2.55.318.308.748.75 1.291 1.323a2.72 2.72 0 0 0 .463-1.502c0-.41-.099-.76-.297-1.047l1.012-1.31c.323.693.482 1.224.477 1.595-.004.428-.159.91-.463 1.443-.265.42-.532.84-.801 1.258a19.287 19.287 0 0 1 1.78 1.993l-.609 1.305c-.776-1.108-1.822-2.344-3.138-3.708a75.934 75.934 0 0 0-1.205-1.205c-.459.56-.684 1.253-.675 2.079.004.38.048.777.132 1.192h.88l-.555 1.191h-1.761l.218-.635a8.323 8.323 0 0 1-.053-.775c0-.658.122-1.264.364-1.82.164-.367.495-.912.993-1.636l-1.641-1.317.741-.974ZM77.33 0c.19.265.284.587.284.967v.907c0 .56.082.84.245.84h2.834c.485 0 .808.128.967.384.114.19.172.528.172 1.013 0 1.272-.523 2.5-1.57 3.688-.648.728-1.783 1.35-3.402 1.867l.675-1.503c.874-.198 1.534-.432 1.98-.702.392-.238.7-.593.92-1.065.212-.45.318-.932.318-1.444 0-.697-.219-1.046-.656-1.046h-2.496c-.335 0-.558-.029-.669-.086-.097-.044-.15-.141-.158-.291L76.72 2.37c-.049-.454-.157-.843-.325-1.165L77.33 0ZM61.473 2.033c.022.247.05.41.086.49a.29.29 0 0 0 .291.191h2.172c.22-.264.464-.487.728-.668v.668h1.225l-.543 1.192h-.735v4.76a8.396 8.396 0 0 1-1.013.987V3.906h-3.648c.473-.702.952-1.326 1.437-1.873Zm-45.153.072c.199.777.298 1.377.298 1.801 0 .68-.216 1.302-.649 1.867-.287.375-.74.792-1.357 1.252.141.538.238.869.291.993.106.251.243.377.41.377.663 0 1.446-.388 2.351-1.165.516-.446.775-.92.775-1.424 0-.878-.137-1.666-.41-2.363.26-.292.626-.724 1.098-1.298.252.764.373 1.58.364 2.45-.004.993-.315 1.915-.933 2.767a5.693 5.693 0 0 1-1.682 1.543c-.675.41-1.309.616-1.9.616-.397 0-.702-.19-.914-.57-.106-.19-.238-.587-.397-1.192l-.735-2.74c-.225-.844-.454-1.417-.688-1.722.066-.084.36-.468.88-1.152.146.146.28.422.404.828.106.392.21.785.311 1.178l.57 2.112c.768-.53 1.152-1.03 1.152-1.503 0-.366-.095-.876-.285-1.53l1.046-1.125Zm67.783-.026.053.41c.026.15.103.225.231.225h4.324c.33 0 .589.142.774.424.155.239.232.521.232.848 0 1.447-.452 2.71-1.357 3.787-.654.776-1.66 1.346-3.02 1.708.15-.322.354-.788.61-1.397a4.23 4.23 0 0 0 1.774-.775c.596-.432.894-1.174.894-2.224 0-.786-.225-1.179-.675-1.179h-5.224a5.537 5.537 0 0 1 1.384-1.827Zm-61.785.04c.65.185 1.278.47 1.887.854.592.37 1.015.737 1.271 1.099.102.582.153 1.183.153 1.8 0 .504-.042 1.186-.126 2.046-.075.203-.318.651-.728 1.344h-4.708c.265-.397.501-.794.709-1.191h3.86a7.02 7.02 0 0 0 .112-1.238c0-.711-.1-1.424-.298-2.139-.547-.508-1.361-.947-2.443-1.317a1.306 1.306 0 0 0-.477 1.032c0 .265.109.497.325.696.101.092.307.227.616.403l-.656.987c-.468-.287-.757-.481-.867-.583-.296-.265-.444-.558-.444-.88 0-.508.228-1.088.682-1.742.393-.56.77-.95 1.132-1.171Zm46.186 0c.65.185 1.278.47 1.887.854.592.37 1.015.737 1.271 1.099.102.582.153 1.183.153 1.8 0 .504-.042 1.186-.126 2.046-.075.203-.318.651-.728 1.344h-4.708c.265-.397.501-.794.709-1.191h3.86a7.02 7.02 0 0 0 .112-1.238c0-.711-.1-1.424-.298-2.139-.547-.508-1.362-.947-2.443-1.317a1.306 1.306 0 0 0-.477 1.032c0 .265.109.497.325.696.101.092.307.227.616.403L68 6.495c-.468-.287-.757-.481-.867-.583-.296-.265-.444-.558-.444-.88 0-.508.228-1.088.682-1.742.393-.56.77-.95 1.132-1.171Zm27.542 0a10.271 10.271 0 0 0 1.708 2.462c.362.393.702.724 1.02.994.27-.406.404-.786.404-1.14 0-.268-.095-.604-.285-1.006l.973-1.257c.327.507.49 1.05.49 1.628 0 .618-.392 1.349-1.178 2.192.247.282.494.562.741.84.243.292.42.588.53.888-.141.503-.483 1.017-1.026 1.542h-4.774c.04-.053.298-.45.775-1.191h4.012c-.08-.274-.362-.66-.847-1.159-.177-.181-.662-.64-1.457-1.377-.605-.56-.986-.925-1.145-1.093a6.049 6.049 0 0 1-.86-1.132c.264-.419.57-.816.92-1.191Zm6.429 0c.75.401 1.454.966 2.112 1.694.07.442.106.994.106 1.656 0 .326-.027 1.134-.08 2.423l-.774 1.37h-2.655c.146-.234.358-.63.636-1.191h1.887c.061-.521.092-.982.092-1.384 0-.658-.057-1.3-.172-1.927a5.908 5.908 0 0 0-1.913-1.49l.761-1.151ZM8.839 2.033l.84.569c1.05.71 1.576 1.366 1.576 1.966 0 .371-.172.826-.516 1.364-.12.181-.446.622-.98 1.324l-.808.245c.777-1.165 1.165-1.988 1.165-2.47 0-.414-.443-.862-1.33-1.343l-.854-.457c.035-.044.337-.444.907-1.198Zm82.6 0 .84.569c1.05.71 1.576 1.366 1.576 1.966 0 .371-.172.826-.517 1.364-.119.181-.445.622-.98 1.324l-.807.245c.777-1.165 1.165-1.988 1.165-2.47 0-.414-.443-.862-1.33-1.343l-.855-.457c.036-.044.338-.444.907-1.198Zm-34.534 0 .84.569c1.051.71 1.576 1.366 1.576 1.966 0 .371-.172.826-.516 1.364-.12.181-.446.622-.98 1.324l-.808.245c.777-1.165 1.166-1.988 1.166-2.47 0-.414-.444-.862-1.331-1.343l-.854-.457c.035-.044.337-.444.907-1.198Z"/></svg>
